assets/images/icons/right_arrow_ic.svg

<svg fill="none" height="26" viewBox="0 0 15 26" width="15" xmlns="http://www.w3.org/2000/svg"><path d="m3.41408.919229c-.78093-.780933-2.04734-.781066-2.828402.000134-.781067.781067-.781067 2.047337 0 2.828397l9.252402 9.25224-9.252402 9.2527c-.781067.7811-.781067 2.0473 0 2.8284.390533.3905.902402.5857 1.414272.5857.51186 0 1.02373-.1952 1.41413-.5858l10.66662-10.667c.3752-.375.5859-.8837.5859-1.4142 0-.5306-.2107-1.0392-.5859-1.4143z" fill="#638a66"/></svg>

<svg width="15" height="26" viewBox="0 0 15 26" fill="none" xmlns="http://www.w3.org/2000/svg">
<path d="M3.41408 0.919229C2.63315 0.138296 1.36674 0.138163 0.585678 0.919363C-0.195389 1.70043 -0.195389 2.9667 0.585678 3.74776L9.83808 13L0.585678 22.2527C-0.195389 23.0338 -0.195389 24.3 0.585678 25.0811C0.976211 25.4716 1.48808 25.6668 1.99995 25.6668C2.51181 25.6668 3.02368 25.4716 3.41408 25.081L14.0807 14.414C14.4559 14.039 14.6666 13.5303 14.6666 12.9998C14.6666 12.4692 14.4559 11.9606 14.0807 11.5855L3.41408 0.919229Z" fill="#638A66"/>
</svg>
